src/images/requestIcon.svg

<svg xmlns="http://www.w3.org/2000/svg" height="24px" viewBox="0 -960 960 960" width="24px" fill="#e8eaed"><path d="M480-360q17 0 28.5-11.5T520-400q0-17-11.5-28.5T480-440q-17 0-28.5 11.5T440-400q0 17 11.5 28.5T480-360Zm-40-160h80v-240h-80v240ZM80-80v-720q0-33 23.5-56.5T160-880h640q33 0 56.5 23.5T880-800v480q0 33-23.5 56.5T800-240H240L80-80Zm126-240h594v-480H160v525l46-45Zm-46 0v-480 480Z"/></svg>

<?xml version="1.0" encoding="UTF-8" standalone="no" ?>
<!DOCTYPE svg PUBLIC "-//W3C//DTD SVG 1.1//EN" "http://www.w3.org/Graphics/SVG/1.1/DTD/svg11.dtd">
<svg xmlns="http://www.w3.org/2000/svg" xmlns:xlink="http://www.w3.org/1999/xlink" version="1.1" width="1080" height="1080" viewBox="0 0 1080 1080" xml:space="preserve">
<desc>Created with Fabric.js 5.2.4</desc>
<defs>
</defs>
<rect x="0" y="0" width="100%" height="100%" fill="transparent"></rect>
<g transform="matrix(1 0 0 1 540 540)" id="bdee173c-fdbc-4008-be7b-14fe5526d0a9"  >
<rect style="stroke: none; stroke-width: 1; stroke-dasharray: none; stroke-linecap: butt; stroke-dashoffset: 0; stroke-linejoin: miter; stroke-miterlimit: 4; fill: rgb(255,255,255); fill-rule: nonzero; opacity: 1; visibility: hidden;" vector-effect="non-scaling-stroke"  x="-540" y="-540" rx="0" ry="0" width="1080" height="1080" />
</g>
<g transform="matrix(1 0 0 1 540 540)" id="9d21b5aa-0158-407e-a506-fcb85b578ff6"  >
</g>
<g transform="matrix(NaN NaN NaN NaN 0 0)"  >
<g style=""   >
</g>
</g>
<g transform="matrix(1 0 0 1 540 540)" id="134aa2c6-e025-41ac-bd6b-ae4fa6b36bdd"  >
<path style="stroke: rgb(0,0,0); stroke-width: 0; stroke-dasharray: none; stroke-linecap: butt; stroke-dashoffset: 0; stroke-linejoin: miter; stroke-miterlimit: 4; fill: rgb(58,57,237); fill-rule: nonzero; opacity: 1;" vector-effect="non-scaling-stroke"  transform=" translate(-480, 480)" d="M 480 -360 Q 497 -360 508.5 -371.5 Q 520 -383 520 -400 Q 520 -417 508.5 -428.5 Q 497 -440 480 -440 Q 463 -440 451.5 -428.5 Q 440 -417 440 -400 Q 440 -383 451.5 -371.5 Q 463 -360 480 -360 Z M 440 -520 L 520 -520 L 520 -760 L 440 -760 L 440 -520 Z M 80 -80 L 80 -800 Q 80 -833 103.5 -856.5 Q 127 -880 160 -880 L 800 -880 Q 833 -880 856.5 -856.5 Q 880 -833 880 -800 L 880 -320 Q 880 -287 856.5 -263.5 Q 833 -240 800 -240 L 240 -240 L 80 -80 Z M 206 -320 L 800 -320 L 800 -800 L 160 -800 L 160 -275 L 206 -320 Z M 160 -320 L 160 -800 L 160 -320 Z" stroke-linecap="round" />
</g>
<g transform="matrix(NaN NaN NaN NaN 0 0)"  >
<g style=""   >
</g>
</g>
</svg>
